X:385
T:B385-  The Queen's Old Courtier
Q:1/4=120
L:1/4
M:C|
K:C
c/c/|c/c/c/c/ c/c/c/c/| c2c/c/c/c/|c/c/c/c/ c/c/c/c/|\
c/c/c2c/c/|c/c/c/c/ c/c/c/c/|c2c/c/c/c/|c/c/c/c/ c/c/c/c/|\
d2c3/2d/|e2dc|BAd2|ge(a/g/) (f/e/)|d2c|]

